X: 1053
T: The Connachman
R:double jig
N:"collected by J.O'Neill"
B:O'Neill's 1053
Z:Transcribed by henrik.norbeck@mailbox.swipnet.se
M:6/8
L:1/8
K:G
(d/c/)|BGA B2g|fdd edc|BGA B2g|fdB c2(d/c/)|
BGA B2g|fdc dga|bag fdc|dgf g2:|
(g/a/)|bag a2g|fdc dga|bag a2g|fdf g2(g/a/)|
bag a2g|fdc dga|bag aeg|fdf g2:|


